Adwaita++-Dark/apps/16/mpv.svg

<svg height="16" width="16" xmlns="http://www.w3.org/2000/svg">
  <path d="m8 1a7 7 0 0 0 -7 7 7 7 0 0 0 7 7 7 7 0 0 0 7-7 7 7 0 0 0 -7-7zm-2 4.21289h.50586.0508c.0975-.0006.1945.0222.2793.0703l3.90234 2.22852c.17321.0958.2617.2923.2617.48828 0 .19599-.0885.39246-.26172.48828l-3.90234 2.23047c-.0849.048-.1818.0689-.2793.0684h-.0508-.50586z" fill="#e6ddff"/>
</svg>

<svg xmlns="http://www.w3.org/2000/svg" width="16" height="16" version="1.1">
 <path id="mpv" fill="#E6DDFF" d="M 8,1 A 7,7 0 0 0 1,8 7,7 0 0 0 8,15 7,7 0 0 0 15,8 7,7 0 0 0 8,1 Z M 6,5.21289 h 0.50586 0.0508 c 0.0975,-6e-4 0.1945,0.0222 0.2793,0.0703 L 10.7383,7.51171 C 10.91151,7.60751 11,7.80401 11,7.99999 11,8.19598 10.9115,8.39245 10.73828,8.48827 l -3.90234,2.23047 c -0.0849,0.048 -0.1818,0.0689 -0.2793,0.0684 H 6.50584 5.99998 Z"/>
</svg>
